X:97
T:Julia Delaney
R:reel
M:4/4
L:1/8
K:Dm
|:dcAG F2DF|E2CE FEDF|dcAG FDFG|Addc defe|
dcAG F2DF|E2CE FEDF|dcAG FDFG|Addc d2de:|
|:fede fagf|ecgc acgc|fede fagf|edcB Adde|
fede fagf|ecgc acgc|fedf edcB|Addc d2de:|
%%text Variations
|:dcAG FEDE|F2cF dFcF|dcAG FDFG|Addc defe|
dcAG FEDE|F2cF dFcF|dcAG FDFG|Addc d2de:|
|:f2fe fagf|ecgc acgc|fede fagf|edce Adde|
f2fe fagf|ecgc acgc|fedf edce|Addc d2de:|
